Dominus_Dark_Funeral/22/apps/brave.svg

<svg xmlns="http://www.w3.org/2000/svg" width="24" height="24"><path d="M8.378.546L6.45 3.024c-.026.008-.214-.149-.42-.209-.55-.162-1.249-.133-1.723.083-.311.141-.431.24-1.17.965-.797.783-.955.972-.955 1.138 0 .043.289.462.43.79l.256.6-.33.905c-.181.498-.338.935-.35.97-.027.086 2.55 9.497 2.685 9.817A4.13 4.13 0 0 0 6 19.613c.45.385 5.016 3.498 5.467 3.728.135.069.349.109.533.113.184-.004.398-.044.533-.113.451-.23 5.015-3.343 5.465-3.728.498-.427.882-.95 1.127-1.53.135-.32 2.715-9.73 2.686-9.818-.01-.034-.167-.471-.35-.97l-.33-.905.256-.598c.142-.33.43-.748.43-.79 0-.167-.155-.356-.952-1.139-.74-.726-.86-.824-1.172-.965-.474-.216-1.172-.245-1.723-.083-.205.06-.395.217-.42.209L15.622.546H12zm-1.3 4.363c.892.104 1.531.447 2.393.574.073 0 .368-.073.656-.162 1.232-.382 1.633-.412 1.87-.412.24 0 .64.03 1.872.412.289.09.58.162.65.162.874-.138 1.568-.438 2.398-.574.162 0 2.057 2.549 2.514 3.363.191.34.252.678.167.935-.077.231-.41.465-1.807 1.76-.642.594-1.18 1.11-1.195 1.152-.067.173-.014.427.185.889.26.604.292.856.16 1.23-.14.397-.346.688-.693.981-.353.3-.57.606-.77.573-.242-.038-1.746-.998-1.995-1.205-.591-.495-1.174-1.067-1.195-1.179a.462.462 0 0 1 .053-.253c.041-.076.471-.476.957-.893.844-.724.997-.893.997-1.101 0-.052-.152-.46-.335-.91-.265-.644-.335-.866-.334-1.048 0-.289.112-.499.334-.646.095-.063.776-.345 1.517-.629.74-.282 1.395-.533 1.457-.558.067-.025.095-.058.07-.083-.023-.022-.431-.076-.907-.12-1.019-.091-.996-.095-2.118.306-.696.247-.81.304-.869.417a.605.605 0 0 0-.068.213c.001.046.147.708.324 1.47.302 1.306.317 1.39.243 1.466-.093.093-1.004.371-1.45.405-.389.03-1.638-.272-1.765-.4-.081-.082-.073-.135.236-1.47.177-.763.322-1.425.322-1.47a.562.562 0 0 0-.064-.214c-.06-.113-.181-.17-.963-.447l-.895-.32-.488.013c-.644.016-1.532.114-1.545.17-.005.025.65.297 1.453.603.805.307 1.531.604 1.613.663.204.144.305.354.307.633 0 .184-.07.408-.34 1.074-.458 1.12-.51.973.692 2.006.508.437.947.851.975.919.083.2-.024.355-.609.882-.694.627-.83.72-1.738 1.155-.417.2-.818.564-.889.562-.198-.004-.326-.275-.662-.545a2.214 2.214 0 0 1-.742-1.044c-.13-.383-.107-.56.162-1.193.196-.463.25-.727.183-.902-.015-.039-.523-.527-1.127-1.084C4.48 9.375 4.31 9.296 4.377 8.823c.049-.337.217-.453.818-1.34.51-.754 1.744-2.48 1.883-2.574zm4.924 9.87c.208 0 .417.08.797.236.724.296 2.24 1.055 2.301 1.152.077.121.001.208-.469.55-.9.47-1.541 1.283-2.633 1.283-1.09 0-1.852-.937-2.793-1.375-.326-.224-.392-.34-.262-.466.125-.123 1.615-.875 2.277-1.149.37-.154.575-.232.782-.232z" fill="#e6e6e6"/></svg>

<?xml version="1.0" encoding="UTF-8" standalone="no"?>
<svg
   xmlns:dc="http://purl.org/dc/elements/1.1/"
   xmlns:cc="http://creativecommons.org/ns#"
   xmlns:rdf="http://www.w3.org/1999/02/22-rdf-syntax-ns#"
   xmlns:svg="http://www.w3.org/2000/svg"
   xmlns="http://www.w3.org/2000/svg"
   xmlns:sodipodi="http://sodipodi.sourceforge.net/DTD/sodipodi-0.dtd"
   xmlns:inkscape="http://www.inkscape.org/namespaces/inkscape"
   width="24"
   height="24"
   version="1.1"
   id="svg4"
   sodipodi:docname="brave.svg"
   inkscape:version="0.92.4 (5da689c313, 2019-01-14)">
  <metadata
     id="metadata10">
    <rdf:RDF>
      <cc:Work
         rdf:about="">
        <dc:format>image/svg+xml</dc:format>
        <dc:type
           rdf:resource="http://purl.org/dc/dcmitype/StillImage" />
        <dc:title></dc:title>
      </cc:Work>
    </rdf:RDF>
  </metadata>
  <defs
     id="defs8" />
  <sodipodi:namedview
     pagecolor="#ffffff"
     bordercolor="#666666"
     borderopacity="1"
     objecttolerance="10"
     gridtolerance="10"
     guidetolerance="10"
     inkscape:pageopacity="0"
     inkscape:pageshadow="2"
     inkscape:window-width="1142"
     inkscape:window-height="480"
     id="namedview6"
     showgrid="false"
     inkscape:zoom="9.8333333"
     inkscape:cx="1.2711864"
     inkscape:cy="12"
     inkscape:window-x="0"
     inkscape:window-y="25"
     inkscape:window-maximized="0"
     inkscape:current-layer="svg4" />
  <path
     d="M 8.378,0.546 6.45,3.024 C 6.424,3.032 6.236,2.875 6.03,2.815 5.48,2.653 4.781,2.682 4.307,2.898 3.996,3.039 3.876,3.138 3.137,3.863 2.34,4.646 2.182,4.835 2.182,5.001 c 0,0.043 0.289,0.462 0.43,0.79 l 0.256,0.6 -0.33,0.905 C 2.357,7.794 2.2,8.231 2.188,8.266 2.161,8.352 4.738,17.763 4.873,18.083 A 4.13,4.13 0 0 0 6,19.613 c 0.45,0.385 5.016,3.498 5.467,3.728 0.135,0.069 0.349,0.109 0.533,0.113 0.184,-0.004 0.398,-0.044 0.533,-0.113 0.451,-0.23 5.015,-3.343 5.465,-3.728 0.498,-0.427 0.882,-0.95 1.127,-1.53 0.135,-0.32 2.715,-9.73 2.686,-9.818 -0.01,-0.034 -0.167,-0.471 -0.35,-0.97 L 21.131,6.39 21.387,5.792 c 0.142,-0.33 0.43,-0.748 0.43,-0.79 0,-0.167 -0.155,-0.356 -0.952,-1.139 C 20.125,3.137 20.005,3.039 19.693,2.898 19.219,2.682 18.521,2.653 17.97,2.815 17.765,2.875 17.575,3.032 17.55,3.024 L 15.622,0.546 H 12 Z m -1.3,4.363 c 0.892,0.104 1.531,0.447 2.393,0.574 0.073,0 0.368,-0.073 0.656,-0.162 1.232,-0.382 1.633,-0.412 1.87,-0.412 0.24,0 0.64,0.03 1.872,0.412 0.289,0.09 0.58,0.162 0.65,0.162 0.874,-0.138 1.568,-0.438 2.398,-0.574 0.162,0 2.057,2.549 2.514,3.363 0.191,0.34 0.252,0.678 0.167,0.935 -0.077,0.231 -0.41,0.465 -1.807,1.76 -0.642,0.594 -1.18,1.11 -1.195,1.152 -0.067,0.173 -0.014,0.427 0.185,0.889 0.26,0.604 0.292,0.856 0.16,1.23 -0.14,0.397 -0.346,0.688 -0.693,0.981 -0.353,0.3 -0.57,0.606 -0.77,0.573 -0.242,-0.038 -1.746,-0.998 -1.995,-1.205 -0.591,-0.495 -1.174,-1.067 -1.195,-1.179 a 0.462,0.462 0 0 1 0.053,-0.253 c 0.041,-0.076 0.471,-0.476 0.957,-0.893 0.844,-0.724 0.997,-0.893 0.997,-1.101 0,-0.052 -0.152,-0.46 -0.335,-0.91 -0.265,-0.644 -0.335,-0.866 -0.334,-1.048 0,-0.289 0.112,-0.499 0.334,-0.646 0.095,-0.063 0.776,-0.345 1.517,-0.629 0.74,-0.282 1.395,-0.533 1.457,-0.558 0.067,-0.025 0.095,-0.058 0.07,-0.083 C 16.981,7.265 16.573,7.211 16.097,7.167 15.078,7.076 15.101,7.072 13.979,7.473 13.283,7.72 13.169,7.777 13.11,7.89 a 0.605,0.605 0 0 0 -0.068,0.213 c 10e-4,0.046 0.147,0.708 0.324,1.47 0.302,1.306 0.317,1.39 0.243,1.466 -0.093,0.093 -1.004,0.371 -1.45,0.405 -0.389,0.03 -1.638,-0.272 -1.765,-0.4 -0.081,-0.082 -0.073,-0.135 0.236,-1.47 0.177,-0.763 0.322,-1.425 0.322,-1.47 A 0.562,0.562 0 0 0 10.888,7.89 C 10.828,7.777 10.707,7.72 9.925,7.443 L 9.03,7.123 8.542,7.136 C 7.898,7.152 7.01,7.25 6.997,7.306 6.992,7.331 7.647,7.603 8.45,7.909 c 0.805,0.307 1.531,0.604 1.613,0.663 0.204,0.144 0.305,0.354 0.307,0.633 0,0.184 -0.07,0.408 -0.34,1.074 -0.458,1.12 -0.51,0.973 0.692,2.006 0.508,0.437 0.947,0.851 0.975,0.919 0.083,0.2 -0.024,0.355 -0.609,0.882 -0.694,0.627 -0.83,0.72 -1.738,1.155 -0.417,0.2 -0.818,0.564 -0.889,0.562 C 8.263,15.799 8.135,15.528 7.799,15.258 A 2.214,2.214 0 0 1 7.057,14.214 C 6.927,13.831 6.95,13.654 7.219,13.021 7.415,12.558 7.469,12.294 7.402,12.119 7.387,12.08 6.879,11.592 6.275,11.035 4.48,9.375 4.31,9.296 4.377,8.823 4.426,8.486 4.594,8.37 5.195,7.483 5.705,6.729 6.939,5.003 7.078,4.909 Z m 4.924,9.87 c 0.208,0 0.417,0.08 0.797,0.236 0.724,0.296 2.24,1.055 2.301,1.152 0.077,0.121 0.001,0.208 -0.469,0.55 -0.9,0.47 -1.541,1.283 -2.633,1.283 -1.09,0 -1.852,-0.937 -2.793,-1.375 -0.326,-0.224 -0.392,-0.34 -0.262,-0.466 0.125,-0.123 1.615,-0.875 2.277,-1.149 0.37,-0.154 0.575,-0.232 0.782,-0.232 z"
     id="path2"
     inkscape:connector-curvature="0"
     style="fill:#e6e6e6" />
</svg>
